files/3/64x64/actions/add-folders-to-archive.svg

<?xml version="1.0" encoding="UTF-8" standalone="no"?>
<svg
   xmlns:dc="http://purl.org/dc/elements/1.1/"
   xmlns:cc="http://creativecommons.org/ns#"
   xmlns:rdf="http://www.w3.org/1999/02/22-rdf-syntax-ns#"
   xmlns:svg="http://www.w3.org/2000/svg"
   xmlns="http://www.w3.org/2000/svg"
   xmlns:sodipodi="http://sodipodi.sourceforge.net/DTD/sodipodi-0.dtd"
   xmlns:inkscape="http://www.inkscape.org/namespaces/inkscape"
   width="64"
   height="64"
   viewBox="0 0 64 64"
   id="svg2"
   version="1.1"
   inkscape:version="0.48.5 r10040"
   sodipodi:docname="add-folders-to-archive.svg">
  <metadata
     id="metadata20">
    <rdf:RDF>
      <cc:Work
         rdf:about="">
        <dc:format>image/svg+xml</dc:format>
        <dc:type
           rdf:resource="http://purl.org/dc/dcmitype/StillImage" />
      </cc:Work>
    </rdf:RDF>
  </metadata>
  <defs
     id="defs18" />
  <sodipodi:namedview
     pagecolor="#ffffff"
     bordercolor="#666666"
     borderopacity="1"
     objecttolerance="10"
     gridtolerance="10"
     guidetolerance="10"
     inkscape:pageopacity="0"
     inkscape:pageshadow="2"
     inkscape:window-width="1280"
     inkscape:window-height="998"
     id="namedview16"
     showgrid="true"
     inkscape:zoom="3.4766084"
     inkscape:cx="53.604258"
     inkscape:cy="9.6734143"
     inkscape:window-x="0"
     inkscape:window-y="0"
     inkscape:window-maximized="1"
     inkscape:current-layer="svg2"
     showguides="true"
     inkscape:guide-bbox="true">
    <inkscape:grid
       type="xygrid"
       id="grid2997"
       empspacing="5"
       visible="true"
       enabled="true"
       snapvisiblegridlinesonly="true" />
  </sodipodi:namedview>
  <rect
     style="fill:#ea9036;fill-opacity:1;stroke:none"
     id="rect3757-6"
     width="42"
     height="18"
     x="4"
     y="26" />
  <path
     style="fill:#ea9036;fill-opacity:1;stroke:none"
     d="m 8,28 c 0,-2 0,-4 2.545456,-4 l 8.90909,0 C 22,24 22,26 22,28 z"
     id="path3759-4"
     inkscape:connector-curvature="0"
     sodipodi:nodetypes="ccccc" />
  <path
     style="fill:#95989f;fill-opacity:1;stroke:none"
     d="m 6,28 38,0 0,8.088888 -38,0 z"
     id="path3765-9"
     inkscape:connector-curvature="0" />
  <rect
     y="30"
     x="10"
     height="22.666666"
     width="32"
     id="rect3763-5"
     style="fill:#d8d8da;fill-opacity:1;stroke:none" />
  <rect
     style="fill:#f9f9f9;fill-opacity:1;stroke:none"
     id="rect3761-3"
     width="32"
     height="23.111113"
     x="8"
     y="32" />
  <path
     style="fill:#f2bb64;fill-opacity:1;stroke:none"
     d="M 0,34 50,34 46,60 4,60 z"
     id="path2987-1"
     inkscape:connector-curvature="0"
     sodipodi:nodetypes="ccccc" />
  <path
     style="fill:#ea9036;fill-opacity:1;stroke:none"
     d="m 9.3333334,28 c 0,-2 0,-4 2.4242436,-4 l 8.484847,0 c 2.424242,0 2.424242,2 2.424242,4 z"
     id="path3759-6"
     inkscape:connector-curvature="0"
     sodipodi:nodetypes="ccccc" />
  <rect
     style="fill:#ea9036;fill-opacity:1;stroke:none"
     id="rect3757"
     width="42"
     height="18"
     x="18"
     y="6" />
  <path
     style="fill:#ea9036;fill-opacity:1;stroke:none"
     d="m 22,8 c 0,-2 0,-4 2.545456,-4 l 8.90909,0 C 36,4 36,6 36,8 z"
     id="path3759"
     inkscape:connector-curvature="0"
     sodipodi:nodetypes="ccccc" />
  <path
     style="fill:#95989f;fill-opacity:1;stroke:none"
     d="m 20,8 38,0 0,8.088888 -38,0 z"
     id="path3765"
     inkscape:connector-curvature="0" />
  <rect
     y="10"
     x="24"
     height="22.666666"
     width="32"
     id="rect3763"
     style="fill:#d8d8da;fill-opacity:1;stroke:none" />
  <rect
     style="fill:#f9f9f9;fill-opacity:1;stroke:none"
     id="rect3761"
     width="32"
     height="23.111113"
     x="22"
     y="12" />
  <path
     style="fill:#000000;fill-opacity:0.10196078;stroke:none"
     d="M 10.5625,24 C 8.9085836,24 8.3278914,24.85991 8.125,26 L 4,26 l 0,8 -4,0 4,26 42,0 4,-26 -4,0 0,-8 -23.4375,0 C 22.36927,24.85991 21.825158,24 20.25,24 l -0.8125,0 -7.6875,0 -1.1875,0 z"
     id="rect3095"
     inkscape:connector-curvature="0" />
  <path
     style="fill:#f2bb64;fill-opacity:1;stroke:none"
     d="m 14,14 50,0 -4,26 -42,0 z"
     id="path2987"
     inkscape:connector-curvature="0"
     sodipodi:nodetypes="ccccc" />
  <path
     inkscape:connector-curvature="0"
     style="fill:#859900"
     d="m 60,42 -10.000002,0 0,-10 L 40,32 l 0,10 -10,0 0,9.999998 10,0 L 40,62 l 9.999998,0 0,-10.000002 10.000002,0 z"
     id="path14" />
</svg>

<svg xmlns="http://www.w3.org/2000/svg" xmlns:xlink="http://www.w3.org/1999/xlink" width="64px" height="64px" viewBox="0 0 64 64" version="1.1">
<g id="surface1">
<path style=" stroke:none;fill-rule:nonzero;fill:rgb(91.764706%,56.470588%,21.176471%);fill-opacity:1;" d="M 4 26 L 46 26 L 46 44 L 4 44 Z M 4 26 "/>
<path style=" stroke:none;fill-rule:nonzero;fill:rgb(91.764706%,56.470588%,21.176471%);fill-opacity:1;" d="M 8 28 C 8 26 8 24 10.546875 24 L 19.453125 24 C 22 24 22 26 22 28 Z M 8 28 "/>
<path style=" stroke:none;fill-rule:nonzero;fill:rgb(58.431373%,59.607843%,62.352941%);fill-opacity:1;" d="M 6 28 L 44 28 L 44 36.089844 L 6 36.089844 Z M 6 28 "/>
<path style=" stroke:none;fill-rule:nonzero;fill:rgb(84.705882%,84.705882%,85.490196%);fill-opacity:1;" d="M 10 30 L 42 30 L 42 52.667969 L 10 52.667969 Z M 10 30 "/>
<path style=" stroke:none;fill-rule:nonzero;fill:rgb(97.647059%,97.647059%,97.647059%);fill-opacity:1;" d="M 8 32 L 40 32 L 40 55.109375 L 8 55.109375 Z M 8 32 "/>
<path style=" stroke:none;fill-rule:nonzero;fill:rgb(94.901961%,73.333333%,39.215686%);fill-opacity:1;" d="M 0 34 L 50 34 L 46 60 L 4 60 Z M 0 34 "/>
<path style=" stroke:none;fill-rule:nonzero;fill:rgb(91.764706%,56.470588%,21.176471%);fill-opacity:1;" d="M 9.332031 28 C 9.332031 26 9.332031 24 11.757812 24 L 20.242188 24 C 22.667969 24 22.667969 26 22.667969 28 Z M 9.332031 28 "/>
<path style=" stroke:none;fill-rule:nonzero;fill:rgb(91.764706%,56.470588%,21.176471%);fill-opacity:1;" d="M 18 6 L 60 6 L 60 24 L 18 24 Z M 18 6 "/>
<path style=" stroke:none;fill-rule:nonzero;fill:rgb(91.764706%,56.470588%,21.176471%);fill-opacity:1;" d="M 22 8 C 22 6 22 4 24.546875 4 L 33.453125 4 C 36 4 36 6 36 8 Z M 22 8 "/>
<path style=" stroke:none;fill-rule:nonzero;fill:rgb(58.431373%,59.607843%,62.352941%);fill-opacity:1;" d="M 20 8 L 58 8 L 58 16.089844 L 20 16.089844 Z M 20 8 "/>
<path style=" stroke:none;fill-rule:nonzero;fill:rgb(84.705882%,84.705882%,85.490196%);fill-opacity:1;" d="M 24 10 L 56 10 L 56 32.667969 L 24 32.667969 Z M 24 10 "/>
<path style=" stroke:none;fill-rule:nonzero;fill:rgb(97.647059%,97.647059%,97.647059%);fill-opacity:1;" d="M 22 12 L 54 12 L 54 35.109375 L 22 35.109375 Z M 22 12 "/>
<path style=" stroke:none;fill-rule:nonzero;fill:rgb(0%,0%,0%);fill-opacity:0.101961;" d="M 10.5625 24 C 8.910156 24 8.328125 24.859375 8.125 26 L 4 26 L 4 34 L 0 34 L 4 60 L 46 60 L 50 34 L 46 34 L 46 26 L 22.5625 26 C 22.371094 24.859375 21.824219 24 20.25 24 Z M 10.5625 24 "/>
<path style=" stroke:none;fill-rule:nonzero;fill:rgb(94.901961%,73.333333%,39.215686%);fill-opacity:1;" d="M 14 14 L 64 14 L 60 40 L 18 40 Z M 14 14 "/>
<path style=" stroke:none;fill-rule:nonzero;fill:rgb(52.156863%,60%,0%);fill-opacity:1;" d="M 60 42 L 50 42 L 50 32 L 40 32 L 40 42 L 30 42 L 30 52 L 40 52 L 40 62 L 50 62 L 50 52 L 60 52 Z M 60 42 "/>
</g>
</svg>
